src/actions/16/object-rotate-right.svg

<svg xmlns="http://www.w3.org/2000/svg" viewBox="0 0 16 16">
  <defs id="defs3051">
    <style type="text/css" id="current-color-scheme">
      .ColorScheme-Text {
        color:#2e3440;
      }
      </style>
  </defs>
 <path style="fill:currentColor;fill-opacity:1;stroke:none" 
     d="M 8.171875 1.671875 L 7.4648438 2.3789062 L 8.4140625 3.328125 L 9.0859375 4 L 5 4 L 5 5 L 9.0859375 5 L 8.4140625 5.671875 L 7.4648438 6.6210938 L 8.171875 7.328125 L 9.1210938 6.3789062 L 11 4.5 L 9.1210938 2.6210938 L 8.171875 1.671875 z M 3.5 5 C 3.22386 5 3 5.22386 3 5.5 C 3 5.77614 3.22386 6 3.5 6 C 3.77614 6 4 5.77614 4 5.5 C 4 5.22386 3.77614 5 3.5 5 z M 10.46875 6.5625 L 6.5625 10.46875 L 10.09375 14 L 14 10.09375 L 10.46875 6.5625 z M 2.5 8 C 2.22386 8 2 8.22386 2 8.5 C 2 8.77614 2.22386 9 2.5 9 C 2.77614 9 3 8.77614 3 8.5 C 3 8.22386 2.77614 8 2.5 8 z M 3.5 11 C 3.22386 11 3 11.22386 3 11.5 C 3 11.77614 3.22386 12 3.5 12 C 3.77614 12 4 11.77614 4 11.5 C 4 11.22386 3.77614 11 3.5 11 z M 6.5 12 C 6.22386 12 6 12.22386 6 12.5 C 6 12.77614 6.22386 13 6.5 13 C 6.77614 13 7 12.77614 7 12.5 C 7 12.22386 6.77614 12 6.5 12 z "
     class="ColorScheme-Text"
     />
</svg>

<svg viewBox="0 0 16 16" xmlns="http://www.w3.org/2000/svg">
 <defs>
  <style type="text/css">.ColorScheme-Text {
        color:#2e3440;
      }</style>
 </defs>
 <path class="ColorScheme-Text" d="m8.1719 1.6719-0.70703 0.70703 1.6211 1.6211h-4.0859v1h4.0859l-1.6211 1.6211 0.70703 0.70703 2.8281-2.8281-2.8281-2.8281zm-4.6719 3.3281c-0.27614 0-0.5 0.22386-0.5 0.5s0.22386 0.5 0.5 0.5 0.5-0.22386 0.5-0.5-0.22386-0.5-0.5-0.5zm6.9688 1.5625-3.9062 3.9062 3.5312 3.5312 3.9062-3.9062-3.5312-3.5312zm-7.9688 1.4375c-0.27614 0-0.5 0.22386-0.5 0.5s0.22386 0.5 0.5 0.5 0.5-0.22386 0.5-0.5-0.22386-0.5-0.5-0.5zm1 3c-0.27614 0-0.5 0.22386-0.5 0.5s0.22386 0.5 0.5 0.5 0.5-0.22386 0.5-0.5-0.22386-0.5-0.5-0.5zm3 1c-0.27614 0-0.5 0.22386-0.5 0.5s0.22386 0.5 0.5 0.5 0.5-0.22386 0.5-0.5-0.22386-0.5-0.5-0.5z" fill="currentColor"/>
</svg>
